!!!!SEGMENT: pl-kk--kk-i-6--035_lilius-franciszek--o-salutaris-hostia.krn
!!!cenid: 16xx:1010
!!!COM: Lilius, Franciszek
!!!COM-rism: pe30020509
!!!CDT: ~1600-1657
!!!CNT: Polish
!!!OTL: O salutaris hostia
!!!PDT:
!!!AGN: Sacred
!!!SMS-siglum: PL-Kk
!!!SMS-shelfmark: Kk.I.6
!!!NIFC-rismID: 1001136223
!!!URL-scan: http://repozytorium.nifc.pl/skany/pl-kk-nut--i-6
!!!ONB-nifc: UWAGA: C (skan 0045-0046, s. 87-88), T (skan 0153-0154, s. 110-112), B (skan 0263-0264, s. 109-110) Następny utwór: Missa
!!!SMS-variant:
!!!SMS-altvar:
**kern	**text	**kern	**text	**kern	**text
*part3	*part3	*part2	*part2	*part1	*part1
*staff3	*staff3	*staff2	*staff2	*staff1	*staff1
*group1	*	*group1	*	*group1	*
*I"Baſsus	*	*I"Tenor.	*	*I"Cantus.	*
*I'B	*	*I'T	*	*I'S	*
*clefF4	*	*clefC1	*	*clefC4	*
*k[b-]	*	*k[b-]	*	*k[b-]	*
*M2/1	*	*M2/1	*	*M2/1	*
*met(C)	*	*met(C)	*	*met(C)	*
=1-	=1-	=1-	=1-	=1-	=1-
*	*	*lig	*	*	*
00r	.	1f	O	00r	.
.	.	1g	.	.	.
*	*	*Xlig	*	*	*
=2-	=2-	=2-	=2-	=2-	=2-
*	*	*lig	*	*	*
.	.	1f	Sa-	.	.
.	.	1e	.	.	.
*	*	*Xlig	*	*	*
=3-	=3-	=3-	=3-	=3-	=3-
0r	.	1f	-lu-	00r	.
.	.	2g/	-ta-	.	.
.	.	2a\	-ris	.	.
=4-	=4-	=4-	=4-	=4-	=4-
1r	.	2b-\	ho-	.	.
.	.	2a\	.	.	.
*lig	*	*	*	*	*
1C	O	2.g/	.	.	.
.	.	4g/	-sti-	.	.
=5-	=5-	=5-	=5-	=5-	=5-
*	*	*	*	*lig	*
1D	.	4f/	-a	1F	O
.	.	4a\	quae	.	.
.	.	4a\	Cae-	.	.
!	!	!LO:TX:a:t=P:problem:# above	!	!	!
!	!	!LO:N:acc=#	!	!	!
.	.	4b\	-li	.	.
*Xlig	*	*	*	*	*
2.C/	Sa-	2cc\	pan-	1G	.
!	!	!LO:SIC:v:t=custos a	!	!	!
.	.	2cc\	-dis	.	.
4C/	-lu-	.	.	.	.
*	*	*	*	*Xlig	*
!	!	!LO:LB:g=original	!	!	!
=6-	=6-	=6-	=6-	=6-	=6-
*	*	*	*	*lig	*
2D/	-ta-	2a\	O-	1F	Sa-
2BB-/	-ris	2b-y\	.	.	.
2.C/	ho-	2g/	.	1E	.
.	.	2.cc\	.	.	.
4BB-/	.	.	.	.	.
*	*	*	*	*Xlig	*
=7-	=7-	=7-	=7-	=7-	=7-
4AA/	.	.	.	1F	-lu-
4GG/	.	4b-\	.	.	.
2FF/	.	4a\	.	.	.
.	.	8g/L	.	.	.
.	.	8f/J	.	.	.
4C/	.	4e/	.	1G	-ta-
4D/	.	4f/	.	.	.
4E\	.	4g/	.	.	.
4C/	.	4e/	.	.	.
=8-	=8-	=8-	=8-	=8-	=8-
4D/	.	4f/	.	1F	-ris
4E\	.	4g/	.	.	.
1F	.	2a\	.	.	.
*	*	*	*	*lig	*
.	.	2.g/	.	1G	ho-
!LO:SIC:v:t=custos D	!	!	!	!	!
2E\	.	.	.	.	.
.	.	4g/	-ti-	.	.
!LO:LB:g=original	!	!	!	!	!
=9-	=9-	=9-	=9-	=9-	=9-
2.D/	.	1.f	-um	1A	.
4C/	.	.	.	.	.
*	*	*	*	*Xlig	*
*	*	*	*	*lig	*
4BB-/	.	.	.	1B-	.
4AA/	.	.	.	.	.
2GG/	.	2.g/	O-	.	.
=10-	=10-	=10-	=10-	=10-	=10-
2.AA/	.	.	.	1A	.
.	.	4f/	.	.	.
.	.	1f	.	.	.
4BB-/	.	.	.	.	.
*	*	*	*	*Xlig	*
2.C/	.	.	.	1G	-ſti-
.	.	2e/	-sti-	.	.
4C/	-ſti-	.	.	.	.
=11-	=11-	=11-	=11-	=11-	=11-
!	!	!LO:SIC:v:t=custos f	!	!	!
1FF	-a	1f	-um	0F	-a
!	!	!LO:PB:g=original	!	!	!
2rBB	.	4r	.	.	.
.	.	4f/	quae	.	.
2D/	quae	1a\	Cae-	.	.
=12-	=12-	=12-	=12-	=12-	=12-
2F\	Cae-	.	.	1A	quae
2F\	-li	2a\	-li	.	.
4E\	pan-	4g/	pan-	1c	Cae-
4D\	.	4f/	.	.	.
4E\	.	4g/	.	.	.
4F\	.	4a\	.	.	.
=13-	=13-	=13-	=13-	=13-	=13-
!	!	!	!	!LO:SIC:v:t=custos A	!
4G\	.	2b-\	.	1B-	-li
4GG/	.	.	.	.	.
4BB-/	.	2f/	-dis	.	.
4C/	.	.	.	.	.
*	*	*	*	*lig	*
!	!	!	!	!LO:LB:g=original	!
4D/	.	2r	.	1A	pan-
4E\	.	.	.	.	.
2F\	.	2a\	quae	.	.
=14-	=14-	=14-	=14-	=14-	=14-
1C	-dis	2cc\	Cae-	1G	.
.	.	2cc\	-li	.	.
*lig	*	*	*	*Xlig	*
1D	Os-	4a\	pan-	1F	-dis
.	.	4g/	.	.	.
.	.	2.f/	.	.	.
=15-	=15-	=15-	=15-	=15-	=15-
1.C	.	.	.	1G	O-
.	.	8e/L	.	.	.
.	.	8d/J	.	.	.
.	.	4e/	.	.	.
.	.	4f/	-dis	.	.
.	.	2.g/	Os-	1E	-sti-
*Xlig	*	*	*	*	*
!LO:SIC:v:t=custos FF	!	!	!	!	!
2C/	-ti-	.	.	.	.
.	.	4g/	-ti-	.	.
!LO:LB:g=original	!	!	!	!	!
=16-	=16-	=16-	=16-	=16-	=16-
!	!	!LO:SIC:v:t=custos cc	!	!	!
1FF	-um	1a	-um	1F,<	-um
*	*	*	*	*lig	*
!	!	!LO:LB:g=original	!	!	!
0rC	.	1r	.	1A	Bel-
=17-	=17-	=17-	=17-	=17-	=17-
.	.	4r	.	1c	.
.	.	2cc\	Bel-	.	.
.	.	4cc\	-la	.	.
*	*	*	*	*Xlig	*
2.F\	Bel-	4a\	pre-	1c	-la
.	.	4f/	.	.	.
.	.	2a\	-munt	.	.
4F\	-la	.	.	.	.
=18-	=18-	=18-	=18-	=18-	=18-
4D/	pre-	2b-\	ho-	1d	pre-
4BB-/	.	.	.	.	.
4D/	.	2.f/	.	.	.
4E\	.	.	.	.	.
2F\	.	.	.	1c	-munt
.	.	4g/	-sti-	.	.
2F\	-munt	2.a\	.	.	.
=19-	=19-	=19-	=19-	=19-	=19-
1G	ho-	.	.	1B-	ho-
.	.	4g/	.	.	.
.	.	1g	.	.	.
*	*	*	*	*lig	*
2.D/	-ſti-	.	.	1A	-sti-
!	!	!LO:TX:b:t=P:problem:# below	!	!	!
.	.	2f#X/	-li-	.	.
4D/	-li-	.	.	.	.
=20-	=20-	=20-	=20-	=20-	=20-
2GG/	-a	1g	-a	1G	.
*	*ij	*	*	*	*
4C/	Bel-	.	.	.	.
4C/	-la	.	.	.	.
*	*	*	*	*Xlig	*
4AA/	pre-	1r	.	1A	-li-
4FF/	-munt	.	.	.	.
2AA/	ho-	.	.	.	.
=21-	=21-	=21-	=21-	=21-	=21-
2.BB-/	ſti-	4ra	.	1F	-a
.	.	2b-\	Bel-	.	.
4BB-/	-li-	4b-\	-la	.	.
!LO:SIC:v:t=custos f	!	!	!	!	!
*	*	*	*	*lig	*
1FF	-a	4a\	pre-	1F	da
*	*Xij	*	*	*	*
.	.	4fny/	-munt	.	.
.	.	2a\	hos-	.	.
!LO:LB:g=original	!	!	!	!	!
=22-	=22-	=22-	=22-	=22-	=22-
1rD	.	2.b-\	-ti-	1G	.
!	!	!LO:SIC:v:t=custos a	!	!	!
.	.	4b-\	-li-	.	.
*	*	*lig	*	*Xlig	*
*	*	*	*	*lig	*
!	!	!LO:LB:g=original	!	!	!
4rBB	.	1a	-a	1F	ro-
4FF/	da	.	.	.	.
4AA/	ro-	.	.	.	.
4BB-/	-bur	.	.	.	.
=23-	=23-	=23-	=23-	=23-	=23-
2C/	fer	1g	.	1E	.
2C/	au-	.	.	.	.
*	*	*Xlig	*	*Xlig	*
*	*	*	*	*lig	*
2.D/	-xi-	4r	.	1F	-bur
.	.	4f/	da	.	.
.	.	4a\	ro-	.	.
!	!	!LO:TX:a:t=P:problem:# above	!	!	!
!	!	!LO:N:acc=#	!	!	!
4D/	-li-	4b\	-bur	.	.
=24-	=24-	=24-	=24-	=24-	=24-
!	!	!	!	!LO:SIC:v:t=custos F	!
2.C/	-um	2cc\	fer	1G	.
.	.	2cc\	au-	.	.
4C/	da	.	.	.	.
*	*	*	*	*Xlig	*
!	!	!	!	!LO:LB:g=original	!
4D/	ro-	4a\	-xi-	1F	fer
4D/	-bur	4f/	.	.	.
1F\	fer	4a\	.	.	.
.	.	4b-y\	.	.	.
=25-	=25-	=25-	=25-	=25-	=25-
*	*	*	*	*lig	*
.	.	2cc\	.	1G	au-
2E\	au	2g/	li-	.	.
2.D/	xi-	2f/	-um	1A	.
.	.	2.a\	au-	.	.
4C/	.	.	.	.	.
*	*	*	*	*Xlig	*
=26-	=26-	=26-	=26-	=26-	=26-
*	*	*	*	*lig	*
2BB-/	.	.	.	1B-	-xi-
.	.	4g/	.	.	.
2GG/	.	2.g/	.	.	.
2.AA/	.	.	.	1A	.
.	.	4f/	-xi-	.	.
.	.	1f/	.	.	.
4BB-/	.	.	.	.	.
*	*	*	*	*Xlig	*
=27-	=27-	=27-	=27-	=27-	=27-
1.C	.	.	.	1G	.
.	.	4e/	.	.	.
.	.	4d/	.	.	.
.	.	2e/	.	1G	-li-
!LO:SIC:v:t=custos FF	!	!	!	!	!
2C/	-li-	2e/	-li-	.	.
!LO:LB:g=original	!	!	!	!	!
=28-	=28-	=28-	=28-	=28-	=28-
!	!	!LO:SIC:v:t=custos d	!	!	!
1FF	-um	1f	-um	[>0F	-um.
!	!	!LO:LB:g=original	!	!	!
2rBB	.	2re	.	.	.
2BB-/	da	2d/	da	.	.
=29-	=29-	=29-	=29-	=29-	=29-
2BB-/	ro-	2d/	ro-	0F_>	.
2AA/	-bur	2f/	-bur	.	.
2BB-/	fer	2d/	fer-	.	.
2FF/	au-	2c/	-au-	.	.
=30-	=30-	=30-	=30-	=30-	=30-
2.BB-/	-xi-	1.d	-xi-	0F]	.
4BB-/	-li-	.	.	.	.
[1FFl;	-um	.	.	.	.
.	.	2d/	-li-	.	.
=31-	=31-	=31-	=31-	=31-	=31-
1FF]	.	1cl;	-um.	1Fl;	.
!	!	!	!	!LO:LB:g=original	!
=32||-	=32||-	=32||-	=32||-	=32||-	=32||-
*k[b-]	*	*k[b-]	*	*k[b-]	*
*M2/1	*	*M2/1	*	*M2/1	*
*met(C)	*	*met(C)	*	*met(C)	*
*	*	*	*	*lig	*
00r	.	00r	.	1F	U-
.	.	.	.	1G	.
*	*	*	*	*Xlig	*
=33-	=33-	=33-	=33-	=33-	=33-
*	*	*	*	*lig	*
.	.	.	.	1F	-ni
.	.	.	.	1E	.
*	*	*	*	*Xlig	*
=34-	=34-	=34-	=34-	=34-	=34-
2r	.	1r	.	1F	Tri-
1F	U-	.	.	.	.
.	.	2r	.	1G	-no-
2E\	-ni	1cc\	U-	.	.
=35-	=35-	=35-	=35-	=35-	=35-
2F\	Tri-	.	.	1F	-q(ue)
!	!	!LO:TX:a:t=P:problem:# above	!	!	!
!	!	!LO:N:acc=#	!	!	!
4D/	-no-	2bnX\	-ni	.	.
!LO:SIC:v:t=custos C	!	!	!	!	!
4D/	-q(ue)	.	.	.	.
*	*	*	*	*lig	*
!LO:LB:g=original	!	!	!	!	!
2.C/	Do-	2cc\	Tri-	1G	Do-
!	!	!LO:SIC:v:t=custos f	!	!	!
.	.	2g/	-no-	.	.
4BB-/	.	.	.	.	.
!	!	!LO:LB:g=original	!	!	!
=36-	=36-	=36-	=36-	=36-	=36-
4AA/	.	2f/	-q(ue)	1A	.
4GG/	.	.	.	.	.
2FF/	.	1a	Do-	.	.
*	*	*	*	*Xlig	*
*	*	*	*	*lig	*
1GG	.	.	.	1B-	.
.	.	2.g/	.	.	.
=37-	=37-	=37-	=37-	=37-	=37-
2.AA/	.	.	.	1A	.
.	.	4f/	.	.	.
.	.	1f	.	.	.
4BB-/	.	.	.	.	.
*	*	*	*	*Xlig	*
2.C/	.	.	.	1G	-mi-
.	.	2e/	.	.	.
4C/	-mi-	.	.	.	.
=38-	=38-	=38-	=38-	=38-	=38-
!	!	!	!	!LO:SIC:v:t=custos A	!
0FF	-no	2.f/	.	0F	-no
.	.	4g/	-mi-	.	.
.	.	1a	-no	.	.
!	!	!	!	!LO:PB:g=original	!
=39-	=39-	=39-	=39-	=39-	=39-
0rD	.	2r	.	1A	Sit
.	.	2cc\	Sit	.	.
.	.	4g/	Sem-	1c	Sem-
.	.	4f/	.	.	.
.	.	4g/	.	.	.
.	.	4a\	.	.	.
=40-	=40-	=40-	=40-	=40-	=40-
2r	.	2b-y\	.	1B-	-pi-
2G\	Sit	2g/	-pi-	.	.
*	*	*	*	*lig	*
8D/L	Sem-	2f/	-ter-	1A	-ter-
8C/	.	.	.	.	.
8D/	.	.	.	.	.
8E/J	.	.	.	.	.
4F\	.	2f/	-na	.	.
4D/	-pi-	.	.	.	.
=41-	=41-	=41-	=41-	=41-	=41-
2E\	-ter-	2g/	.	1G	.
!	!	!LO:SIC:v:t=custos d	!	!	!
2C/	-na	2e/	glo-	.	.
*lig	*	*	*	*Xlig	*
!	!	!LO:LB:g=original	!	!	!
1D	glo-	4d/	.	1F	-na
.	.	4e/	.	.	.
.	.	2.f/	.	.	.
=42-	=42-	=42-	=42-	=42-	=42-
1.C	.	.	.	1G	glo-
.	.	8e/L	.	.	.
.	.	8d/J	.	.	.
.	.	4e/	.	.	.
.	.	4f/	.	.	.
.	.	2.g/	.	2.E/	.
*Xlig	*	*	*	*	*
2C/	-ri-	.	.	.	.
.	.	4g/	-ri-	4E/	-ri-
=43-	=43-	=43-	=43-	=43-	=43-
!LO:SIC:v:t=custos D	!	!	!	!	!
1FF	-a	2a\	-a	1F	-a
.	.	4r	.	.	.
.	.	4a\	qui	.	.
!LO:PB:g=original	!	!	!	!	!
0rD	.	2cc\	Vi-	1A	qui
.	.	2cc\	-t(am)	.	.
=44-	=44-	=44-	=44-	=44-	=44-
.	.	2.g/	Si-	1c	Vi-
.	.	4f/	-ne	.	.
1rD	.	4e/	ter-	1c	-t(am)
.	.	4f/	.	.	.
.	.	4g/	.	.	.
.	.	4e/	.	.	.
=45-	=45-	=45-	=45-	=45-	=45-
2rBB	.	2.a\	.	1d	si-
2D/	qui	.	.	.	.
!	!	!LO:SIC:v:t=custos f	!	!	!
.	.	4g/	.	.	.
!	!	!LO:PB:g=original	!	!	!
2F\	Vi-	4f/	.	1c	-ne
.	.	4g/	.	.	.
2F\	-t(am)	2.a\	.	.	.
=46-	=46-	=46-	=46-	=46-	=46-
*	*	*	*	*lig	*
2G\	Si-	.	.	1B-	ter-
.	.	4g/	.	.	.
2G\	-ne	1g	.	.	.
2.D/	ter-	.	.	1A	.
!	!	!LO:TX:b:t=P:problem:# below	!	!	!
.	.	2f#X/	-mi-	.	.
4D/	-mi-	.	.	.	.
*	*	*	*	*Xlig	*
=47-	=47-	=47-	=47-	=47-	=47-
2GG/	-no	1g	-no	1G	-mi-
2C/	qui	.	.	.	.
*	*	*	*	*lig	*
2F\	Vi-	0rg	.	1A	-no
2F\	-t(am)	.	.	.	.
=48-	=48-	=48-	=48-	=48-	=48-
!	!	!	!	!LO:SIC:v:t=custos F	!
2.D/	Si-	.	.	1F	.
4C/	.	.	.	.	.
*	*	*	*	*Xlig	*
*	*	*	*	*lig	*
!	!	!	!	!LO:LB:g=original	!
2BB-/	.	2re	.	1F	no-
2AA/	-ne	2fny/	qui	.	.
=49-	=49-	=49-	=49-	=49-	=49-
4GG/	ter-	2b-\	Vi-	1G	.
4AA/	.	.	.	.	.
4BB-/	.	2b-\	-t(am)	.	.
4C/	.	.	.	.	.
*	*	*	*	*Xlig	*
*	*	*	*	*lig	*
2.D/	.	2a\	Si-	1F	-bis
.	.	2d/	-ne	.	.
!LO:SIC:v:t=custos C	!	!	!	!	!
4D/	-mi-	.	.	.	.
!LO:LB:g=original	!	!	!	!	!
=50-	=50-	=50-	=50-	=50-	=50-
2C/	-no	2.g/	ter-	1E,<	.
4C/	no-	.	.	.	.
4C/	-bis	4g/	-mi-	.	.
*	*	*	*	*Xlig	*
4D/	do-	1f	-no	1F	do-
4E\	-net	.	.	.	.
1F\	in	.	.	.	.
=51-	=51-	=51-	=51-	=51-	=51-
.	.	1rg	.	1G	-net
2E\	pa-	.	.	.	.
2.D/	.	4f/	no-	1F	in
.	.	4f/	-bis	.	.
.	.	4a\	do-	.	.
!	!	!LO:SIC:v:t=custos cc	!	!	!
4C/	-tri-	4b-\	-net	.	.
!	!	!LO:LB:g=original	!	!	!
=52-	=52-	=52-	=52-	=52-	=52-
*	*	*	*	*lig	*
1C	-a	1cc	in	1G	pa-
2.FF/	no-	2cc\	pa-	1A	.
.	.	2a\	.	.	.
4FF/	-bis	.	.	.	.
*	*	*	*	*Xlig	*
=53-	=53-	=53-	=53-	=53-	=53-
*	*	*	*	*lig	*
4GG/	do-	2g/	.	1B-	.
4AA/	.	.	.	.	.
4BB-/	.	2.g/	.	.	.
4GG/	.	.	.	.	.
2.AA/	-net	.	.	1A	.
.	.	4f/	.	.	.
.	.	1f/	.	.	.
4BB-/	in	.	.	.	.
*	*	*	*	*Xlig	*
=54-	=54-	=54-	=54-	=54-	=54-
1.C	pa-	.	.	1G	.
.	.	4e/	.	.	.
.	.	4d/	.	.	.
.	.	2e/	.	1G	-tri-
2C/	-tri-	2e/	-tri-	.	.
=55-	=55-	=55-	=55-	=55-	=55-
!LO:SIC:v:t=custos BB	!	!	!	!	!
1FF	-a	1f	-a	1F,<	-a
!LO:LB:g=original	!	!	!	!	!
2rGG	.	2re	.	[>0F	A-
1BB-/	A-	2.d/	A-	.	.
=56-	=56-	=56-	=56-	=56-	=56-
.	.	.	.	.	.
.	.	4e/	.	.	.
2AA/	-men	2f/	.	.	.
2.BB-/	A-	4d/	-men	0F_>	-men
.	.	2dd\	A-	.	.
4C/	.	4cc\	.	.	.
=57-	=57-	=57-	=57-	=57-	=57-
4D/	.	2b-\	.	.	.
4E\	.	.	.	.	.
!	!	!LO:SIC:v:t=custos b	!	!	!
2F\	.	2a\	.	.	.
*	*	*	*	*	*ij
!	!	!LO:LB:g=original	!	!	!
2BB-/	.	(2b-\	.	0F]	A-
2AA/	.	2cc\)	.	.	.
=58-	=58-	=58-	=58-	=58-	=58-
1BB-	.	2.b-\	.	.	.
.	.	8a\L	.	.	.
.	.	8g\J	.	.	.
0FFl;;	-men.	0al;;	-men.	0Fl;	-men
*	*	*	*	*	*Xij
==	==	==	==	==	==
*-	*-	*-	*-	*-	*-
!!!system-decoration: [g1]
!!!RDF**kern: > = above
!!!RDF**kern: < = below
!!!RDF**kern: l = terminal long
!!!ENC: Andrzej Kubiczek
!!!END: 2021-03-23
!!!ENC: Berenika Jozajtis
!!!END: 2021-03-08
